!!!COM:	Martini, Johannes
!!!CDT:	~1440///-~1497//
!!!OPR:	Missa Ma bouche rit
!!!ONM:	4
!!!OTL:	Sanctus
!!!AGN:	Mass; Sanctus
!!!SCT:	Mar1010d
!!!SCA:	Mar1010d
!!!voices:	4
!!!voices-OPR:	4
**kern	**kern	**kern	**kern
*staff4	*staff3	*staff2	*staff1
*Ivox	*Ivox	*Ivox	*Ivox
*I"Bassus	*I"Tenor	*I"Contratenor	*I"Superius
*I'B	*I'T	*I'Ct	*I'S
*>[A,B,C,D,C]	*>[A,B,C,D,C]	*>[A,B,C,D,C]	*>[A,B,C,D,C]
*>A	*>A	*>A	*>A
*clefF4	*clefGv2	*clefGv2	*clefG2
*k[]	*k[]	*k[]	*k[]
*M2/1	*M2/1	*M2/1	*M2/1
*met(C)	*met(C)	*met(C)	*met(C)
!!section: Sanctus
!!!OMD: Sanctus
=1-	=1-	=1-	=1-
0A	0r	1A	0a
.	.	[1c	.
=2	=2	=2	=2
0c	0A	2c\]	1e
.	.	2A/	.
.	.	2c\	1a
.	.	2d\	.
=3	=3	=3	=3
2B\	1E	1.e	1g
1G	.	.	.
.	1A	.	1cc
2F\	.	2f\	.
=4	=4	=4	=4
1G	1.G	2d\	1b
.	.	1e	.
2E\	.	.	2cc\
2D\	2F/	2f\	[2dd\
=5	=5	=5	=5
1G	1E	2g\	2dd\]
.	.	2e\	2g/
1F	1D	2f\	2.a/
.	.	2d\	.
.	.	.	4g/
=6	=6	=6	=6
1E	1G	1e	1b
1r	1A	2c\	1e
.	.	4B\	.
.	.	4A/	.
=7	=7	=7	=7
1E	2B\	1G	1g
.	1c	.	.
1F	.	1r	1a
.	4B\	.	.
.	4A/	.	.
=8	=8	=8	=8
1E	1G	1g	2b\
.	.	.	2cc\
1B	1r	2d\	2dd\
.	.	[2g\	[2b\
=9	=9	=9	=9
1c	0r	4g\]	4b\]
.	.	4f\	4a/
.	.	1e	2a/
1B	.	.	2.b\
.	.	2d\	.
.	.	.	4g/
=10	=10	=10	=10
1E	0r	1e	2.g/
.	.	.	4e/
1F	.	2c\	2a/
.	.	2A/	[2a/
=11	=11	=11	=11
1E	0e	1B	2a/]
.	.	.	2g#i/
1AA	.	2A/	1a
.	.	[2A/	.
=12	=12	=12	=12
1r	1d	2A/]	1b
.	.	2G/	.
[1A	1c	2A/	1a
.	.	[2c\	.
=13	=13	=13	=13
2A\]	0A	4c\]	1.cc
.	.	4d\	.
1.c	.	2e\	.
.	.	1f	.
.	.	.	2a/
=14	=14	=14	=14
1d	1G	1g	1b
1c	1A	1e	1cc
=15	=15	=15	=15
0G	0B	[0g	0dd
=16	=16	=16	=16
0C	0c	0g]	0ee
=17	=17	=17	=17
1D	1A	1f	1dd
1E	1G	[1g	1b
=18	=18	=18	=18
1C	1E	2g\]	1cc
.	.	2e\	.
1D	1F	2d\	[1a
.	.	[2f\	.
=19	=19	=19	=19
0F	0D	4f\]	2a/]
.	.	4e\	.
.	.	4d\	2b\
.	.	4c\	.
.	.	2.B\	2a/
.	.	.	4g/
.	.	4A/	4f/
=20	=20	=20	=20
1G	1C	2c\	2e/
.	.	2e\	2cc\
2F\	1r	2f\	2dd\
2E\	.	[2g\	[2ee\
=21	=21	=21	=21
1C	0r	2g\]	4ee\]
.	.	.	4dd\
.	.	2e\	1cc
1G	.	1d	.
.	.	.	2b\
=22	=22	=22	=22
1C	1e	1c	2cc\
.	.	.	2r
1r	2c\	2e\	1a
.	[2d\	[2f\	.
=23	=23	=23	=23
0r	2d\]	4f\]	2f/
.	.	4e\	.
.	2B\	2d\	2g/
.	1A	2e\	1c
.	.	[2c\	.
=24	=24	=24	=24
1r	1G	2c\]	1d
.	.	2B\	.
[1C	2r	1c	1c
.	2G/	.	.
=25	=25	=25	=25
1C]	2.c\	2A/	1r
.	.	1G	.
.	4d\	.	.
1C	1e	.	2.g/
.	.	[2g\	.
.	.	.	4a/
=26	=26	=26	=26
1G	2.d\	4g\]	2b\
.	.	4f\	.
.	.	2g\	4a/
.	4c\	.	4b\
1F	1A	1a	1cc
=27	=27	=27	=27
2G\	1G	2d\	2b\
1E	.	2e\	1g
.	[1c	2g\	.
[2F\	.	[2f\	[2a/
=28	=28	=28	=28
2F\]	2c\]	4f\]	2a/]
.	.	4e\	.
2G\	2B\	2.d\	1g
1D	1A	.	.
.	.	4c\	.
.	.	2d\	2f#i/
=29	=29	=29	=29
2r	0G	1B	0g
1d	.	.	.
.	.	1r	.
2B\	.	.	.
=30	=30	=30	=30
2c\	0r	1e	0r
1A	.	.	.
.	.	1f	.
[2d\	.	.	.
=31	=31	=31	=31
2d\]	1B	2g\	0r
2G\	.	1g	.
1A	1c	.	.
.	.	2f#i\	.
=32	=32	=32	=32
2G\	2d\	1g	1r
2F\	1d	.	.
1E	.	1G	1e
.	2c#i\	.	.
=33	=33	=33	=33
1D	1d	2A/	1f
.	.	1B	.
1E	2r	.	2g/
.	2c\	2c\	[2g/
=34	=34	=34	=34
1D	2d\	2B\	2g/]
.	2f\	2A/	2f/
1C	1e	1c	2g/
.	.	.	2r
=35	=35	=35	=35
2r	1.d	2.B\	2.dd\
1G	.	.	.
.	.	4c\	4cc\
.	.	2d\	4b\
.	.	.	4a/
2A\	2c\	2f\	[2a/
=36	=36	=36	=36
1E	1B	1e	2a/]
.	.	.	2g/
1F	1A	2d\	1a
.	.	2c\	.
=37	=37	=37	=37
2.G\	1E	1g	0r
4F\	.	.	.
1D	1F	1a	.
=38	=38	=38	=38
1E	2.G/	2g\	0r
.	.	2.g\	.
.	4A/	.	.
2D\	2B\	.	.
.	.	4f\	.
2C/	[2c\	2e\	.
=39	=39	=39	=39
1G	2c\]	1d	1r
.	2B\	.	.
1C	1c	1c	2e/
.	.	.	2f/
=40	=40	=40	=40
0c	0e	1r	2.g/
.	.	.	4a/
.	.	[1g	2b\
.	.	.	[2cc\
=41	=41	=41	=41
1G	0d	1g]	2cc\]
.	.	.	2b\
1D	.	2f\	2a/
.	.	[2a\	4g/
.	.	.	4f/
=42	=42	=42	=42
2r	2c\	2a\]	2e/
2G\	2B\	1d	2d/
2F\	2.A/	.	1f
2D\	.	[2a\	.
.	4B\	.	.
=43	=43	=43	=43
1C	1c	2a\]	1e
.	.	2g\	.
2c\	1F	1a	2A/
2A\	.	.	2c/
=44	=44	=44	=44
2B\	2G/	2g\	2B/
2c\	1A	2e\	1e
2F\	.	1f	.
4E\	2B\	.	2d/
4D\	.	.	.
=45	=45	=45	=45
0Cl	0cl	0el	0el
!!LO:LB:i:g=z
=46||	=46||	=46||	=46||
*>B	*>B	*>B	*>B
*clefF4	*clefGv2	*clefGv2	*clefG2
*k[]	*k[]	*k[]	*k[]
*M2/1	*M2/1	*M2/1	*M2/1
*met(C)	*met(C)	*met(C)	*met(C)
!!section: Pleni sunt celi
!!!OMD: Pleni sunt celi
0r	0r	1.A	0r
.	.	2G/	.
=47	=47	=47	=47
0r	0r	2A/	1.a
.	.	2c\	.
.	.	1B	.
.	.	.	2g/
=48	=48	=48	=48
0r	0r	1A	2a/
.	.	.	2cc\
.	.	2r	1b
.	.	[2d\	.
=49	=49	=49	=49
0r	0r	2d\]	1a
.	.	2c\	.
.	.	1e	2r
.	.	.	2g/
=50	=50	=50	=50
0r	0r	1f	2a/
.	.	.	2cc\
.	.	[1g	2b\
.	.	.	[2dd\
=51	=51	=51	=51
0r	0r	1g]	4dd\]
.	.	.	4cc\
.	.	.	4b\
.	.	.	4a/
.	.	[1e	2cc\
.	.	.	4b\
.	.	.	4a/
=52	=52	=52	=52
0r	0r	2e\]	2g/
.	.	1A	1cc
.	.	2G/	[2b\
=53	=53	=53	=53
0r	0r	1c	4b\]
.	.	.	4a/
.	.	.	1a
.	.	1B	.
.	.	.	2g/
=54	=54	=54	=54
0r	0r	1A	2a/
.	.	.	1cc
.	.	1e	.
.	.	.	2b\
=55	=55	=55	=55
0r	0r	1f	2a/
.	.	.	4g/
.	.	.	4f/
.	.	1g	2e/
.	.	.	2b\
=56	=56	=56	=56
0r	0r	2a\	2cc\
.	.	2.g\	2.ee\
.	.	4f\	4dd\
.	.	2e\	[2cc\
=57	=57	=57	=57
0r	0r	1d	2cc\]
.	.	.	2b\
.	.	1c	1cc
=58	=58	=58	=58
2A\	0r	0r	2c/
2B\	.	.	2d/
[1c	.	.	2.e/
.	.	.	4f/
=59	=59	=59	=59
1c]	0r	0r	2g/
.	.	.	1a
1B	.	.	.
.	.	.	2g/
=60	=60	=60	=60
2A\	0r	0r	2a/
1c	.	.	2g/
.	.	.	2e/
2B\	.	.	[2g/
=61	=61	=61	=61
2G\	0r	0r	4g/]
.	.	.	4e/
2A\	.	.	2f/
2B\	.	.	2.g/
[2E\	.	.	.
.	.	.	4c/
=62	=62	=62	=62
2E\]	0r	0r	2c/
2D\	.	.	2d/
1G	.	.	2B/
.	.	.	[2e/
=63	=63	=63	=63
1F	0r	0r	2e/]
.	.	.	2d/
1El	.	.	1e
=64	=64	=64	=64
0r	0r	1e	2r
.	.	.	2cc\
.	.	[1g	2b\
.	.	.	[2ee\
=65	=65	=65	=65
0r	0r	1g]	4ee\]
.	.	.	4dd\
.	.	.	2b\
.	.	1a	2a/
.	.	.	[2cc\
=66	=66	=66	=66
0r	0r	2A/	4cc\]
.	.	.	4b\
.	.	2B\	2g/
.	.	2c\	2a/
.	.	2d\	2b\
=67	=67	=67	=67
0r	0r	2A/	1cc
.	.	1e	.
.	.	.	1b
.	.	2d\	.
=68	=68	=68	=68
0r	0r	0el	0el
!!LO:LB:i:g=z
=69||	=69||	=69||	=69||
*>C	*>C	*>C	*>C
*clefF4	*clefGv2	*clefGv2	*clefG2
*k[]	*k[]	*k[]	*k[]
*M3/1	*M3/1	*M3/1	*M3/1
*met(C3)	*met(C3)	*met(C3)	*met(C3)
!!primary-mensuration: met(C.)
!! Tempo is in met(C.)
!!section: Osanna
!!!OMD: Osanna
1G	1B	1d	0.r
2G\	2B\	2g\	.
2F\	1c	2a\	.
1A	.	2.f\	.
.	2c\	.	.
.	.	4e\	.
=70	=70	=70	=70
1.G	2.d\	1g	1b
.	4c\	.	.
.	2B\	2d\	2b\
1.r	2.A/	2f\	2.cc\
.	.	1e	.
.	4G/	.	4b\
.	2A/	.	2cc\
=71	=71	=71	=71
1.d	1D	1.d	1dd
.	2r	.	2dd\
1.e	1G	1.r	1b
.	2A/	.	2cc\
=72	=72	=72	=72
1d	1B	1g	2.dd\
.	.	.	4g/
2e\	1c	2e\	2a/
2c\	.	2f\	1cc
1d	1G	1g	.
.	.	.	2b\
=73	=73	=73	=73
1c	0.r	1e	0cc
2F\	.	2A/	.
2E\	.	2c\	.
1D	.	2.B\	1dd
.	.	4A/	.
=74	=74	=74	=74
1.C	1c	2.c\	1.g
.	.	4d\	.
.	2c\	2e\	.
1c	1F	2f\	1a
.	.	2d\	.
2G\	2E/	2e\	2g/
=75	=75	=75	=75
2A\	2F/	2.c\	1f
2.F\	1D	.	.
.	.	4A/	.
.	.	2B\	2d/
4E\	.	.	.
1.G	1.C	1c	1e
.	.	[2G/	2c/
=76	=76	=76	=76
1C	1c	2G/]	2e/
.	.	2A/	2f/
0E	1B	2G/	1g
.	.	2B\	.
.	1c	2.G/	1e
.	.	4F/	.
=77	=77	=77	=77
1.D	0d	1A	1f
.	.	1B	1d
1G	.	.	.
.	1B	1e	1g
2E\	.	.	.
=78	=78	=78	=78
2C/	1c	2g\	2e/
1F	.	1f	2.a/
.	2B\	.	.
.	.	.	4g/
2G\	2G/	2e\	1g
1D	1A	1d	.
.	.	.	2f#i/
=79	=79	=79	=79
1E	1G	1B	1g
1C	2c\	1e	2e/
.	2.c\	.	2c/
1D	.	1f	2f/
.	4A/	.	.
.	2B\	.	2d/
=80	=80	=80	=80
1C	1.c	1g	1e
1F	.	1a	1A
.	1d	.	.
1G	.	1d	1r
.	2B\	.	.
=81	=81	=81	=81
1F	2c\	1f	2.a/
.	2d\	.	.
.	.	.	4b\
2E\	2e\	2g\	2cc\
1D	1.A	2.f\	2dd\
.	.	.	2a/
.	.	4d\	.
[2A\	.	2e\	[2cc\
=82	=82	=82	=82
2A\]	1r	1a	2cc\]
1e	.	.	1b
.	2r	2g#i\	.
1f	[1.A	1a	1a
[2e\	.	2gni\	[2cc\
=83	=83	=83	=83
2e\]	2A/]	2e\	2cc\]
2c\	1A	1f	1cc
2d\	.	.	.
1d	1G	1g	1b
2r	2A/	2f\	2cc\
=84	=84	=84	=84
2d\	1G	2g\	1dd
2B\	.	1d	.
2G\	2B\	.	2dd\
2A\	2c\	1.A	2cc\
1F	1d	.	1a
=85	=85	=85	=85
2.E\	1.e	1B	2.g/
4F\	.	.	4a/
2G\	.	2B\	2b\
2A\	1e	2A/	1cc
2E\	.	2e\	.
2A\	2c\	2f\	2a/
=86	=86	=86	=86
2G\	2d\	1g	2b\
2E\	2e\	.	2.cc\
1F	1A	2f\	.
.	.	.	4b\
.	.	2d\	1a
1E	1B	1e	.
.	.	.	2g#i/
=87	=87	=87	=87
0.AAl	0.Al	0.cl	0.al
!!LO:LB:i:g=z
!!LO:TX:rj:i:Y=30:t=fine
=88||	=88||	=88||	=88||
*>D	*>D	*>D	*>D
*clefF4	*clefGv2	*clefGv2	*clefG2
*k[]	*k[]	*k[]	*k[]
*M2/1	*M2/1	*M2/1	*M2/1
*met(C|)	*met(C|)	*met(C|)	*met(C|)
!!section: Benedictus
!!!OMD: Benedictus
0r	0r	1.e	1.e
.	.	4d\	2f/
.	.	4c\	.
=89	=89	=89	=89
0r	0r	2B\	1g
.	.	2.c\	.
.	.	.	2a/
.	.	4B\	.
.	.	[2A/	2cc\
=90	=90	=90	=90
0r	0r	2A/]	1b
.	.	2G/	.
.	.	2c\	2e/
.	.	2d\	2f/
=91	=91	=91	=91
0r	0r	1e	2g/
.	.	.	1e
.	.	1f	.
.	.	.	2d/
=92	=92	=92	=92
0r	0r	0e	2.g/
.	.	.	4a/
.	.	.	2b\
.	.	.	[2cc\
=93	=93	=93	=93
1A	0r	0r	4cc\]
.	.	.	4b\
.	.	.	1a
1B	.	.	.
.	.	.	2g#i/
=94	=94	=94	=94
1A	0r	0r	2a/
.	.	.	2cc\
1G	.	.	2b\
.	.	.	[2ee\
=95	=95	=95	=95
2c\	0r	0r	2ee\]
2d\	.	.	2dd\
1e	.	.	2b\
.	.	.	[2cc\
=96	=96	=96	=96
2A\	0r	0r	2cc\]
1c	.	.	2a/
.	.	.	[1g
2B\	.	.	.
=97	=97	=97	=97
2c\	0r	1r	1g]
1e	.	.	.
.	.	1f	1r
2d\	.	.	.
=98	=98	=98	=98
2e\	0r	1e	0r
1A	.	.	.
.	.	2f\	.
2G\	.	2g\	.
=99	=99	=99	=99
2A\	0r	2c\	0r
2E\	.	1e	.
1F	.	.	.
.	.	2d\	.
=100	=100	=100	=100
0E	0r	2e\	0g
.	.	4d\	.
.	.	4c\	.
.	.	2B\	.
.	.	2E/	.
=101	=101	=101	=101
0r	0r	2B\	0g
.	.	2c\	.
.	.	1B	.
=102	=102	=102	=102
1r	1.A	0r	0a
1A	.	.	.
.	[2c\	.	.
=103	=103	=103	=103
1G	2c\]	0r	0r
.	2B\	.	.
2A\	2.A/	.	.
[2c\	.	.	.
.	4G/	.	.
=104	=104	=104	=104
4c\]	2.E/	0r	0r
4d\	.	.	.
1e	.	.	.
.	4F/	.	.
.	2G/	.	.
2c\	[2A/	.	.
=105	=105	=105	=105
1B	2A/]	0r	0r
.	2G/	.	.
2r	2.B\	.	.
2E\	.	.	.
.	4c\	.	.
=106	=106	=106	=106
2F\	2d\	0r	0r
2E\	1e	.	.
1F	.	.	.
.	2A/	.	.
=107	=107	=107	=107
2.E\	2G/	0r	0r
.	2.c\	.	.
4F\	.	.	.
2G\	.	.	.
.	4B\	.	.
[2A\	2A/	.	.
=108	=108	=108	=108
2A\]	1B	0r	0r
2G#i\	.	.	.
1A	1A	.	.
=109	=109	=109	=109
0r	0r	2e\	0cc
.	.	2f\	.
.	.	2e\	.
.	.	[2a\	.
=110	=110	=110	=110
0r	0r	2a\]	1b
.	.	2g\	.
.	.	2a\	1a
.	.	4g\	.
.	.	4f\	.
=111	=111	=111	=111
0r	0r	2e\	2r
.	.	2A/	1ee
.	.	2c\	.
.	.	2B\	2dd\
=112	=112	=112	=112
0r	0r	2e\	2cc\
.	.	2d\	2b\
.	.	1f	2a/
.	.	.	[2cc\
=113	=113	=113	=113
0r	0r	1.e	2cc\]
.	.	.	4b\
.	.	.	4a/
.	.	.	2g/
.	.	2A/	[2cc\
=114	=114	=114	=114
0r	0r	2c\	4cc\]
.	.	.	4b\
.	.	2d\	1a
.	.	1B	.
.	.	.	2g#i/
=115	=115	=115	=115
0Al	0r	0Al	0al
!!LO:TX:i:Y=40:rj:t=[Osanna ut supra]
=||	=||	=||	=||
*-	*-	*-	*-
!!!RDF**kern: l=long note in original notation
!!!RDF**kern: i=editorial accidental
!!!ENC:	Chris Gage 10-22-2014
!!!END:	2015/03/07/
!!!EED:	Jesse Rodin
!!!EEV:	2015/03/09/
!!!ONB:	Translated from MusicXML and edited on 2015/03/09/ by Craig Sapp
!!muse2ps: T^@{OPR}^u^@{ONM}{. }@{OTL}^C^@{COM}^i2I150v85,85,85,150Q16
